src/next/cmd/sc_crookrotate.svg

<svg height="16" width="16" xmlns="http://www.w3.org/2000/svg" xmlns:xlink="http://www.w3.org/1999/xlink"><linearGradient id="a"><stop offset="0" stop-color="#0968ef"/><stop offset="1" stop-color="#aecffc"/></linearGradient><linearGradient id="b"><stop offset="0" stop-color="#fff"/><stop offset="1" stop-color="#fff" stop-opacity="0"/></linearGradient><linearGradient id="c" gradientTransform="matrix(1.6260349 -.03031998 -.03032001 1.6610453 2.419578 -28.4987)" gradientUnits="userSpaceOnUse" x1="68.302673" x2="68.302673" xlink:href="#b" y1="30.528692" y2="85.07811"/><linearGradient id="d" gradientTransform="matrix(.88731106 0 0 1.2261852 -40.905799 -11.618961)" gradientUnits="userSpaceOnUse" x1="102.31124" x2="74.330322" xlink:href="#b" y1="-5.830213" y2="32"/><linearGradient id="e" gradientTransform="matrix(.59245361 0 0 .76480615 -73.477856 -10.747966)" gradientUnits="userSpaceOnUse" x1="29.500801" x2="103.76822" y1="29.743441" y2="97.734528"><stop offset="0" stop-color="#fff"/><stop offset=".42597079" stop-color="#fff"/><stop offset=".5892781" stop-color="#f1f1f1"/><stop offset=".80219781" stop-color="#eaeaea"/><stop offset="1" stop-color="#dfdfdf"/></linearGradient><linearGradient id="f" gradientTransform="matrix(.07291481 0 0 .10813251 -78.254027 -54.755844)" gradientUnits="userSpaceOnUse" x1="399.77466" x2="399.77466" y1="1164.6696" y2="549.06134"><stop offset="0" stop-color="#b4b4b6"/><stop offset=".5" stop-color="#9c9ca1"/><stop offset="1" stop-color="#cdcdd1"/></linearGradient><linearGradient id="g" gradientUnits="userSpaceOnUse" x1="56" x2="168" xlink:href="#a" y1="91.110481" y2="32"/><linearGradient id="h" gradientTransform="matrix(.12247601 -.02499254 .02499254 .12247601 -2.024164 112.91892)" gradientUnits="userSpaceOnUse" x1="7.341731" x2="0" xlink:href="#a" y1="83.848755" y2="40"/><linearGradient id="i" gradientUnits="userSpaceOnUse" x1="48" x2="119.9375" y1="120" y2="91.955078"><stop offset="0" stop-color="#c7cdd7"/><stop offset="1" stop-color="#fff"/></linearGradient><g transform="translate(0 -112)"><g transform="matrix(.125 0 0 .125 0 112)"><rect fill="url(#f)" height="64" rx="2.144051" ry="2.301303" transform="rotate(-90)" width="64" x="-64"/><g fill-rule="evenodd"><rect fill="url(#e)" height="48" rx="1.066416" ry="1.24281" transform="rotate(-90)" width="48" x="-56" y="8"/><path d="m40.283164 8c-9.479645 11.560575-18.365938 24.064639-23.90194 39.237925h24.151496c1.352678-14.52659 5.575365-27.649438 11.3964-39.237925z" fill="url(#d)"/></g></g><path d="m6.9627404 126.1636-3.7729986 1.00721-.2419493-.65969 1.5164175-.95406c-4.24776151-1.96804-4.35724606-4.85824-3.3379934-7.20267l.9226598.46214c-.6917974 1.88424-.9105978 4.09747 2.8357177 5.83318l-.2631971-1.75085.6702656-.26478z" fill="url(#h)" fill-rule="evenodd"/><g transform="matrix(.125 0 0 .125 0 112)"><path d="m87.722656 56 .0078.0098a8.0008 8.0008 0 0 0 -7.591797 6.085937c-2.206447 9.007691-9.080164 15.882551-18.173828 18.275391a8.0008 8.0008 0 0 0 -5.947266 7.36914l-.017565-.015659v.275391a8.0008 8.0008 0 0 0 0 .107422v30.113278 1.68946a8.0008 8.0008 0 0 0 8.433594 7.98828c16.357377-.8885 32.300427-8.00336 43.886716-19.58399 11.5863-11.580625 18.70898-27.520009 19.60547-43.87695a8.0008 8.0008 0 0 0 -7.98828-8.4375h-1.50391-30.525387z" fill="url(#g)"/><path d="m87.722656 64a27.117844 27.117844 0 0 1 -23.722656 23.724609v32.185551a59.239292 59.239292 0 0 0 55.9375-55.91016z" fill="url(#i)"/><path d="m87.722656 64a27.117844 27.117844 0 0 1 -12.554687 19.78125c6.63244.722039 13.573419 1.047588 20.734375.914062 6.764916-.126141 13.341296-.656455 19.660156-1.535156a59.239292 59.239292 0 0 0 4.375-19.160156z" fill="url(#c)" opacity=".574257"/></g></g></svg>

<?xml version="1.0" encoding="UTF-8" standalone="no"?>
<!-- Created with Inkscape (http://www.inkscape.org/) -->

<svg
   xmlns:dc="http://purl.org/dc/elements/1.1/"
   xmlns:cc="http://creativecommons.org/ns#"
   xmlns:rdf="http://www.w3.org/1999/02/22-rdf-syntax-ns#"
   xmlns:svg="http://www.w3.org/2000/svg"
   xmlns="http://www.w3.org/2000/svg"
   xmlns:xlink="http://www.w3.org/1999/xlink"
   xmlns:sodipodi="http://sodipodi.sourceforge.net/DTD/sodipodi-0.dtd"
   xmlns:inkscape="http://www.inkscape.org/namespaces/inkscape"
   width="16"
   height="16"
   id="svg2"
   sodipodi:version="0.32"
   inkscape:version="0.92.4 (unknown)"
   version="1.0"
   sodipodi:docname="sc_crookrotate.svg"
   inkscape:output_extension="org.inkscape.output.svgz.inkscape"
   inkscape:export-filename="/home/rizmut/Dokumen/Rizmut/Github/libreoffice-style-karasa-jaga/build/next/cmd/sc_crookrotate.png"
   inkscape:export-xdpi="96"
   inkscape:export-ydpi="96">
  <defs
     id="defs4">
    <inkscape:perspective
       sodipodi:type="inkscape:persp3d"
       inkscape:vp_x="0 : 64 : 1"
       inkscape:vp_y="0 : 1000 : 0"
       inkscape:vp_z="128 : 64 : 1"
       inkscape:persp3d-origin="64 : 42.666667 : 1"
       id="perspective46" />
    <linearGradient
       id="linearGradient2399">
      <stop
         id="stop2401"
         offset="0"
         style="stop-color:#0968ef;stop-opacity:1;" />
      <stop
         id="stop2403"
         offset="1"
         style="stop-color:#aecffc;stop-opacity:1;" />
    </linearGradient>
    <linearGradient
       id="linearGradient2431">
      <stop
         style="stop-color:#ffffff;stop-opacity:1;"
         offset="0"
         id="stop2433" />
      <stop
         id="stop2435"
         offset="0.42597079"
         style="stop-color:#ffffff;stop-opacity:1;" />
      <stop
         id="stop2437"
         offset="0.5892781"
         style="stop-color:#f1f1f1;stop-opacity:1;" />
      <stop
         style="stop-color:#eaeaea;stop-opacity:1;"
         offset="0.80219781"
         id="stop2439" />
      <stop
         style="stop-color:#dfdfdf;stop-opacity:1;"
         offset="1"
         id="stop2441" />
    </linearGradient>
    <linearGradient
       id="linearGradient7422">
      <stop
         style="stop-color:#b4b4b6;stop-opacity:1;"
         offset="0"
         id="stop7424" />
      <stop
         id="stop5348"
         offset="0.5"
         style="stop-color:#9c9ca1;stop-opacity:1;" />
      <stop
         id="stop7426"
         offset="1"
         style="stop-color:#cdcdd1;stop-opacity:1;" />
    </linearGradient>
    <linearGradient
       id="linearGradient3310"
       inkscape:collect="always">
      <stop
         id="stop3312"
         offset="0"
         style="stop-color:#ffffff;stop-opacity:1;" />
      <stop
         id="stop3314"
         offset="1"
         style="stop-color:#ffffff;stop-opacity:0;" />
    </linearGradient>
    <linearGradient
       id="linearGradient3314"
       inkscape:collect="always">
      <stop
         id="stop3316"
         offset="0"
         style="stop-color:#ffffff;stop-opacity:1;" />
      <stop
         id="stop3318"
         offset="1"
         style="stop-color:#ffffff;stop-opacity:0;" />
    </linearGradient>
    <linearGradient
       id="linearGradient3323">
      <stop
         style="stop-color:#c7cdd7;stop-opacity:1;"
         offset="0"
         id="stop3325" />
      <stop
         style="stop-color:#ffffff;stop-opacity:1;"
         offset="1"
         id="stop3327" />
    </linearGradient>
    <linearGradient
       inkscape:collect="always"
       xlink:href="#linearGradient2399"
       id="linearGradient2201"
       gradientUnits="userSpaceOnUse"
       gradientTransform="matrix(0.14127989,-0.66444142,0.66444142,0.14127989,-18.819718,130.2539)"
       x1="113.15723"
       y1="25.786163"
       x2="39.268185"
       y2="25.786163" />
    <linearGradient
       inkscape:collect="always"
       xlink:href="#linearGradient3314"
       id="linearGradient2204"
       gradientUnits="userSpaceOnUse"
       gradientTransform="matrix(1.5275638,-2.6458181,2.2162152,1.280019,-187.60223,-4.8954894)"
       x1="20"
       y1="78.165009"
       x2="20"
       y2="109.84906" />
    <linearGradient
       inkscape:collect="always"
       xlink:href="#linearGradient3323"
       id="linearGradient2207"
       gradientUnits="userSpaceOnUse"
       gradientTransform="matrix(0.7637819,0,0,0.8888892,-77.368144,35.414217)"
       x1="80.34671"
       y1="17.268518"
       x2="73.462685"
       y2="107.95493" />
    <linearGradient
       inkscape:collect="always"
       xlink:href="#linearGradient3310"
       id="linearGradient2211"
       gradientUnits="userSpaceOnUse"
       gradientTransform="matrix(0.94898505,0,0,1.3114132,-43.287562,7.0173895)"
       x1="102.31124"
       y1="-5.8302126"
       x2="74.330322"
       y2="32" />
    <linearGradient
       inkscape:collect="always"
       xlink:href="#linearGradient2431"
       id="linearGradient2214"
       gradientUnits="userSpaceOnUse"
       gradientTransform="matrix(0.70833339,0,0,0.888889,-103.33333,-12.901465)"
       x1="42.728634"
       y1="99.999985"
       x2="124.09152"
       y2="27.999992" />
    <linearGradient
       inkscape:collect="always"
       xlink:href="#linearGradient7422"
       id="linearGradient2217"
       gradientUnits="userSpaceOnUse"
       gradientTransform="matrix(0.08948859,0,0,0.1301193,-110.22302,-67.516115)"
       x1="399.77466"
       y1="1164.6696"
       x2="399.77466"
       y2="549.06134" />
    <linearGradient
       inkscape:collect="always"
       xlink:href="#linearGradient2399"
       id="linearGradient2221"
       gradientUnits="userSpaceOnUse"
       gradientTransform="matrix(-0.13313305,0.62612671,-0.62612671,-0.13313305,145.6909,8.214993)"
       x1="113.15723"
       y1="25.786163"
       x2="39.268185"
       y2="25.786163" />
    <linearGradient
       inkscape:collect="always"
       xlink:href="#linearGradient2399"
       id="linearGradient3612"
       x1="-69.147636"
       y1="92.303108"
       x2="8.4692287"
       y2="55.123131"
       gradientUnits="userSpaceOnUse"
       gradientTransform="matrix(0.8820543,0,0,0.94818453,-5.4400014,6.7463582)" />
    <linearGradient
       inkscape:collect="always"
       xlink:href="#linearGradient3323"
       id="linearGradient3614"
       gradientUnits="userSpaceOnUse"
       gradientTransform="matrix(0.67369711,0,0,0.84283104,-73.682904,40.325571)"
       x1="28.42202"
       y1="58.674355"
       x2="127.80429"
       y2="35.79192" />
    <linearGradient
       inkscape:collect="always"
       xlink:href="#linearGradient3323"
       id="linearGradient3616"
       gradientUnits="userSpaceOnUse"
       gradientTransform="matrix(0.67013598,0,0,0.83333345,-73.625866,40.933415)"
       x1="80.34671"
       y1="17.268518"
       x2="73.462685"
       y2="107.95493" />
    <linearGradient
       inkscape:collect="always"
       xlink:href="#linearGradient3310"
       id="linearGradient3629"
       x1="68.302673"
       y1="30.528692"
       x2="68.302673"
       y2="85.07811"
       gradientUnits="userSpaceOnUse" />
    <linearGradient
       inkscape:collect="always"
       xlink:href="#linearGradient7422"
       id="linearGradient3722"
       gradientUnits="userSpaceOnUse"
       gradientTransform="matrix(0.08948859,0,0,0.1301193,-110.22302,-67.516115)"
       x1="399.77466"
       y1="1164.6696"
       x2="399.77466"
       y2="549.06134" />
    <linearGradient
       inkscape:collect="always"
       xlink:href="#linearGradient2431"
       id="linearGradient3724"
       gradientUnits="userSpaceOnUse"
       gradientTransform="matrix(0.70833339,0,0,0.888889,-103.33333,-12.901465)"
       x1="42.728634"
       y1="99.999985"
       x2="124.09152"
       y2="27.999992" />
    <linearGradient
       inkscape:collect="always"
       xlink:href="#linearGradient3310"
       id="linearGradient3726"
       gradientUnits="userSpaceOnUse"
       gradientTransform="matrix(0.94898505,0,0,1.3114132,-43.287562,7.0173895)"
       x1="102.31124"
       y1="-5.8302126"
       x2="74.330322"
       y2="32" />
    <linearGradient
       inkscape:collect="always"
       xlink:href="#linearGradient3323"
       id="linearGradient3728"
       gradientUnits="userSpaceOnUse"
       gradientTransform="matrix(0.67369711,0,0,0.84283104,-73.682904,40.325571)"
       x1="28.42202"
       y1="58.674355"
       x2="127.80429"
       y2="35.79192" />
    <linearGradient
       inkscape:collect="always"
       xlink:href="#linearGradient2399"
       id="linearGradient3730"
       gradientUnits="userSpaceOnUse"
       gradientTransform="matrix(0.8820543,0,0,0.94818453,-5.4400014,6.7463582)"
       x1="-69.147636"
       y1="92.303108"
       x2="8.4692287"
       y2="55.123131" />
    <linearGradient
       inkscape:collect="always"
       xlink:href="#linearGradient2399"
       id="linearGradient3732"
       gradientUnits="userSpaceOnUse"
       gradientTransform="matrix(0.14127989,-0.66444142,0.66444142,0.14127989,-18.819718,130.2539)"
       x1="113.15723"
       y1="25.786163"
       x2="39.268185"
       y2="25.786163" />
    <linearGradient
       inkscape:collect="always"
       xlink:href="#linearGradient2399"
       id="linearGradient3734"
       gradientUnits="userSpaceOnUse"
       gradientTransform="matrix(-0.13313305,0.62612671,-0.62612671,-0.13313305,145.6909,8.214993)"
       x1="113.15723"
       y1="25.786163"
       x2="39.268185"
       y2="25.786163" />
    <linearGradient
       inkscape:collect="always"
       xlink:href="#linearGradient3310"
       id="linearGradient3736"
       gradientUnits="userSpaceOnUse"
       x1="68.302673"
       y1="30.528692"
       x2="68.302673"
       y2="85.07811" />
    <linearGradient
       inkscape:collect="always"
       xlink:href="#linearGradient3310"
       id="linearGradient3739"
       gradientUnits="userSpaceOnUse"
       x1="68.302673"
       y1="30.528692"
       x2="68.302673"
       y2="85.07811"
       gradientTransform="matrix(1.6260349,-0.03031998,-0.03032001,1.6610453,2.4195779,-28.4987)" />
    <linearGradient
       inkscape:collect="always"
       xlink:href="#linearGradient2399"
       id="linearGradient3742"
       gradientUnits="userSpaceOnUse"
       gradientTransform="matrix(-0.0971347,0.45682595,-0.45682595,-0.0971347,136.72685,21.046678)"
       x1="113.15723"
       y1="25.786163"
       x2="39.268185"
       y2="25.786163" />
    <linearGradient
       inkscape:collect="always"
       xlink:href="#linearGradient3310"
       id="linearGradient3756"
       gradientUnits="userSpaceOnUse"
       gradientTransform="matrix(0.88731106,0,0,1.2261852,-40.905799,-11.618961)"
       x1="102.31124"
       y1="-5.8302126"
       x2="74.330322"
       y2="32" />
    <linearGradient
       inkscape:collect="always"
       xlink:href="#linearGradient2431"
       id="linearGradient3759"
       gradientUnits="userSpaceOnUse"
       gradientTransform="matrix(0.59245361,0,0,0.76480615,-73.477856,-10.747966)"
       x1="29.500801"
       y1="29.743441"
       x2="103.76822"
       y2="97.734528" />
    <linearGradient
       inkscape:collect="always"
       xlink:href="#linearGradient7422"
       id="linearGradient3762"
       gradientUnits="userSpaceOnUse"
       gradientTransform="matrix(0.07291481,0,0,0.10813251,-78.254027,-54.755844)"
       x1="399.77466"
       y1="1164.6696"
       x2="399.77466"
       y2="549.06134" />
    <linearGradient
       inkscape:collect="always"
       xlink:href="#linearGradient2399"
       id="linearGradient919"
       x1="56"
       y1="91.110481"
       x2="168"
       y2="32"
       gradientUnits="userSpaceOnUse" />
    <linearGradient
       inkscape:collect="always"
       xlink:href="#linearGradient2399"
       id="linearGradient936"
       x1="7.3417306"
       y1="83.848755"
       x2="0"
       y2="40"
       gradientUnits="userSpaceOnUse"
       gradientTransform="matrix(0.12247601,-0.02499254,0.02499254,0.12247601,-2.0241642,112.91892)" />
    <linearGradient
       inkscape:collect="always"
       xlink:href="#linearGradient3323"
       id="linearGradient898"
       x1="48"
       y1="120"
       x2="119.9375"
       y2="91.955078"
       gradientUnits="userSpaceOnUse" />
  </defs>
  <sodipodi:namedview
     id="base"
     pagecolor="#ffffff"
     bordercolor="#666666"
     borderopacity="1.0"
     gridtolerance="10000"
     guidetolerance="10"
     objecttolerance="10"
     inkscape:pageopacity="0.0"
     inkscape:pageshadow="2"
     inkscape:zoom="10.672882"
     inkscape:cx="9.8526271"
     inkscape:cy="18.736242"
     inkscape:document-units="px"
     inkscape:current-layer="layer1"
     width="128px"
     height="128px"
     showgrid="true"
     showborder="true"
     inkscape:window-width="1366"
     inkscape:window-height="714"
     inkscape:window-x="0"
     inkscape:window-y="28"
     inkscape:snap-nodes="true"
     inkscape:snap-bbox="true"
     inkscape:snap-page="true"
     inkscape:window-maximized="1"
     inkscape:snap-global="true">
    <inkscape:grid
       id="GridFromPre046Settings"
       type="xygrid"
       originx="0"
       originy="0"
       spacingx="0.5"
       spacingy="0.5"
       color="#0000ff"
       empcolor="#0000ff"
       opacity="0.2"
       empopacity="0.4"
       empspacing="2"
       visible="true"
       enabled="true" />
  </sodipodi:namedview>
  <metadata
     id="metadata7">
    <rdf:RDF>
      <cc:Work
         rdf:about="">
        <dc:format>image/svg+xml</dc:format>
        <dc:type
           rdf:resource="http://purl.org/dc/dcmitype/StillImage" />
        <dc:title></dc:title>
      </cc:Work>
    </rdf:RDF>
  </metadata>
  <g
     inkscape:label="Layer 1"
     inkscape:groupmode="layer"
     id="layer1"
     transform="translate(0,-112)">
    <g
       id="g1561"
       transform="matrix(0.125,0,0,0.125,0,112)">
      <rect
         inkscape:export-ydpi="90"
         inkscape:export-xdpi="90"
         inkscape:export-filename="/home/pinheiro/Desktop/mock2.png"
         style="opacity:1;fill:url(#linearGradient3762);fill-opacity:1;fill-rule:nonzero;stroke:none"
         id="rect3281"
         width="64"
         height="64"
         x="-64"
         y="3.9188699e-15"
         inkscape:r_cx="true"
         inkscape:r_cy="true"
         ry="2.3013027"
         rx="2.1440511"
         transform="rotate(-90)" />
      <rect
         ry="1.2428099"
         rx="1.0664161"
         y="8"
         x="-56"
         height="48"
         width="48"
         id="rect3283"
         style="fill:url(#linearGradient3759);fill-opacity:1;fill-rule:evenodd;stroke:none"
         transform="rotate(-90)" />
      <path
         inkscape:connector-curvature="0"
         id="path3285"
         d="M 40.283164,8 C 30.803519,19.560575 21.917226,32.064639 16.381224,47.237925 H 40.53272 C 41.885398,32.711335 46.108085,19.588487 51.92912,8 Z"
         style="fill:url(#linearGradient3756);fill-opacity:1;fill-rule:evenodd;stroke:none;stroke-width:1.11351407" />
    </g>
    <path
       inkscape:connector-curvature="0"
       style="fill:url(#linearGradient936);fill-opacity:1;fill-rule:evenodd;stroke:none;stroke-width:0.125px;stroke-linecap:butt;stroke-linejoin:miter;stroke-opacity:1"
       d="m 6.9627404,126.1636 -3.7729986,1.00721 -0.2419493,-0.65969 1.5164175,-0.95406 c -4.24776151,-1.96804 -4.35724606,-4.85824 -3.3379934,-7.20267 l 0.9226598,0.46214 c -0.6917974,1.88424 -0.9105978,4.09747 2.8357177,5.83318 l -0.2631971,-1.75085 0.6702656,-0.26478 z"
       id="path2537-3"
       sodipodi:nodetypes="cccccccccc" />
    <g
       id="g1566"
       transform="matrix(0.125,0,0,0.125,0,112)">
      <path
         id="path909"
         d="m 87.722656,56 0.0078,0.0098 a 8.0008,8.0008 0 0 0 -7.591797,6.085937 c -2.206447,9.007691 -9.080164,15.882551 -18.173828,18.275391 a 8.0008,8.0008 0 0 0 -5.947266,7.36914 L 56,87.724609 V 88 a 8.0008,8.0008 0 0 0 0,0.107422 v 30.113278 1.68946 a 8.0008,8.0008 0 0 0 8.433594,7.98828 c 16.357377,-0.8885 32.300427,-8.00336 43.886716,-19.58399 11.5863,-11.580625 18.70898,-27.520009 19.60547,-43.87695 A 8.0008,8.0008 0 0 0 119.9375,56 h -1.50391 -30.525387 z"
         style="opacity:1;fill:url(#linearGradient919);fill-opacity:1;stroke:none;stroke-width:4.50349379;stroke-linecap:square;stroke-linejoin:bevel;stroke-miterlimit:4;stroke-dasharray:none;stroke-dashoffset:0;stroke-opacity:0.73039216"
         inkscape:connector-curvature="0" />
      <path
         id="path881"
         d="M 87.722656,64 A 27.117844,27.117844 0 0 1 64,87.724609 V 119.91016 A 59.239292,59.239292 0 0 0 119.9375,64 Z"
         style="opacity:1;fill:url(#linearGradient898);fill-opacity:1;stroke:none;stroke-width:5.91149855;stroke-linecap:round;stroke-linejoin:round;stroke-miterlimit:4;stroke-dasharray:none;stroke-dashoffset:0;stroke-opacity:1"
         inkscape:connector-curvature="0" />
      <path
         id="path3618"
         d="M 87.722656,64 A 27.117844,27.117844 0 0 1 75.167969,83.78125 c 6.63244,0.722039 13.573419,1.047588 20.734375,0.914062 6.764916,-0.126141 13.341296,-0.656455 19.660156,-1.535156 A 59.239292,59.239292 0 0 0 119.9375,64 Z"
         style="opacity:0.57425741;fill:url(#linearGradient3739);fill-opacity:1;stroke:none;stroke-width:2.05567837"
         inkscape:connector-curvature="0" />
    </g>
  </g>
</svg>
